X:39
M:2/4
L:1/8
Q:"Spiritoso  "1/4=140
K:D
!mf!(F>A)|L[B2G2D2]A>D|F2 (F>A)|L[B2G2D2]A>D|\
(F<E) (F>A)|L[B2G2D2]A>D|F2 (F>A)|
([BG]>[cA][dB]>[BG])|[AF]<F||F>A|([BG]>[cA][dB]>[BG])|\
[AF]<F ([fA]>[ec])|([dB]>B) A>F|F<E F>A|
([BG]>[cA][dB]>[BG])|[AF]<F ([fA]>[ec])|([dB]>B) (AF)|\
(F<E)!f! F>A|L[B2G2] A>D|F2 (F>A)|
L[B2G2] A>F|(F<E) (F>A)|L[B2G2] A>D|\

